nextcloudappstore/core/static/assets/img/icons/categories/account-network.svg

<svg width="20" height="20" fill="none" style="-webkit-print-color-adjust:exact" version="1.1" viewBox="-0 -0 20 20" xmlns="http://www.w3.org/2000/svg"><g rx="0" ry="0" fill="#000"><g class="fills"><path rx="0" ry="0" d="m10.833 14.167v1.666h0.834c0.46 0 0.833 0.373 0.833 0.834h5.833v1.666h-5.833c0 0.461-0.373 0.834-0.833 0.834h-3.334c-0.46 0-0.833-0.373-0.833-0.834h-5.833v-1.666h5.833c0-0.461 0.373-0.834 0.833-0.834h0.834v-1.666h-5v-1.25c0-1.609 2.608-2.917 5.833-2.917s5.833 1.308 5.833 2.917v1.25h-5zm-0.833-11.667c1.611 0 2.917 1.306 2.917 2.917 0 1.61-1.306 2.916-2.917 2.916s-2.917-1.306-2.917-2.916c0-1.611 1.306-2.917 2.917-2.917z" fill="#007bbd"/></g></g></svg>

<svg xmlns:xlink="http://www.w3.org/1999/xlink" width="20" xmlns="http://www.w3.org/2000/svg" height="20" id="screenshot-db15cf86-6f9e-8025-8002-bbab9ed6fdca" viewBox="-0 -0 20 20" style="-webkit-print-color-adjust: exact;" fill="none" version="1.1"><g id="shape-db15cf86-6f9e-8025-8002-bbab9ed6fdca" rx="0" ry="0" style="fill: rgb(0, 0, 0);"><g id="shape-db15cf86-6f9e-8025-8002-bbab9ed6fdcc"><g class="fills" id="fills-db15cf86-6f9e-8025-8002-bbab9ed6fdcc"><path rx="0" ry="0" d="M10.833,14.167L10.833,15.833L11.667,15.833C12.127,15.833,12.500,16.206,12.500,16.667L18.333,16.667L18.333,18.333L12.500,18.333C12.500,18.794,12.127,19.167,11.667,19.167L8.333,19.167C7.873,19.167,7.500,18.794,7.500,18.333L1.667,18.333L1.667,16.667L7.500,16.667C7.500,16.206,7.873,15.833,8.333,15.833L9.167,15.833L9.167,14.167L4.167,14.167L4.167,12.917C4.167,11.308,6.775,10.000,10.000,10.000C13.225,10.000,15.833,11.308,15.833,12.917L15.833,14.167L10.833,14.167ZM10.000,2.500C11.611,2.500,12.917,3.806,12.917,5.417C12.917,7.027,11.611,8.333,10.000,8.333C8.389,8.333,7.083,7.027,7.083,5.417C7.083,3.806,8.389,2.500,10.000,2.500ZZ" style="fill: rgb(0, 123, 189); fill-opacity: 1;"/></g></g></g></svg>
